public/assets/standards/soft/implementation.svg

<svg width="48" height="48" viewBox="0 0 48 48" fill="none" xmlns="http://www.w3.org/2000/svg">
<g clip-path="url(#clip0_1_878)">
<path d="M47.9299 5.78L0.0699463 5.9V48H47.9299V5.78Z" fill="#006D68"/>
<path d="M47.9299 0H0.0699463V5.78H47.9299V0Z" fill="#A8C653"/>
<path d="M17.28 27.96C17.28 31.67 20.29 34.68 24 34.68C27.71 34.68 30.72 31.67 30.72 27.96C30.72 25.46 27.66 19.93 25.67 16.6C24.92 15.34 23.09 15.34 22.33 16.6C20.34 19.93 17.28 25.46 17.28 27.96Z" stroke="white" stroke-width="1.11" stroke-linecap="round" stroke-linejoin="round"/>
<path d="M24.0001 24.44V38.13" stroke="white" stroke-width="1.11" stroke-linecap="round" stroke-linejoin="round"/>
<path d="M22.3201 24.53C22.3201 23.6 23.0701 22.85 24.0001 22.85C24.9301 22.85 25.6801 23.6 25.6801 24.53C25.6801 25.46 24.9301 26.21 24.0001 26.21C23.0701 26.21 22.3201 25.46 22.3201 24.53Z" fill="white"/>
<path d="M13.41 24.35L7.02002 29.06L13.41 33.77" stroke="white" stroke-width="1.11" stroke-linecap="round" stroke-linejoin="round"/>
<path d="M34.59 24.35L40.98 29.06L34.59 33.77" stroke="white" stroke-width="1.11" stroke-linecap="round" stroke-linejoin="round"/>
</g>
<defs>
<clipPath id="clip0_1_878">
<rect width="48" height="48" fill="white"/>
</clipPath>
</defs>
</svg>

<svg xmlns="http://www.w3.org/2000/svg" width="48" height="48" fill="none" viewBox="0 0 48 48"><g clip-path="url(#a)"><path fill="#006d68" d="M47.93 5.78.07 5.9V48h47.86z"/><path fill="#a8c653" d="M47.93 0H.07v5.78h47.86z"/><path stroke="#fff" stroke-linecap="round" stroke-linejoin="round" stroke-width="1.11" d="M17.28 27.96c0 3.71 3.01 6.72 6.72 6.72s6.72-3.01 6.72-6.72c0-2.5-3.06-8.03-5.05-11.36-.75-1.26-2.58-1.26-3.34 0-1.99 3.33-5.05 8.86-5.05 11.36M24 24.44v13.69"/><path fill="#fff" d="M22.32 24.53c0-.93.75-1.68 1.68-1.68s1.68.75 1.68 1.68-.75 1.68-1.68 1.68-1.68-.75-1.68-1.68"/><path stroke="#fff" stroke-linecap="round" stroke-linejoin="round" stroke-width="1.11" d="m13.41 24.35-6.39 4.71 6.39 4.71m21.18-9.42 6.39 4.71-6.39 4.71"/></g><defs><clipPath id="a"><path fill="#fff" d="M0 0h48v48H0z"/></clipPath></defs></svg>
